X:13077
T:Phyliss and Benny MacKinnon's Jig 
R:jig
C:Brenda Stubbert, SOCAN
O:20th century Cape Breton
S:Tune of the Month, Jan. 2001
A:http://www.capebretonisland.com/Music/Stubbert
N:Contacts ...
N:..... brenda@cranfordpub.com
N:Tune books and related recordings
N:..... Cranford Publications <http://www.cranfordpub.com>
H:Copyrights:Published by Stubbert Music
Z:Paul Stewart Cranford 
L:1/8
Q:300
M:6/8
K:G
E|DB,D DGA|Bge dBG|AGA c2 B|ABG FED|!
DB,D DGA|Bge dBG|AGA B2 A|GAF G2:|!
|:c|B2 d def|gba gdB|ABA AGA|[1BAG E2 c|!
B2 d def|gba gdB|ABA B2 A|GAF G2:|!
[2 BAG EcE|DBD DGA|Bge dBG|AGA B2 A|GAF G2|]!
